X:2838
L:1/8
Q:1/8=300
M:4/4
K:G
 z6 [dD,]c |: [BG,,]2 [dG,]B [GE,,]2 [gE,]2 | [eC,,]e [gC,]e [cD,,]e [dD,]c | 
 [BG,,]2 [dG,]B [GE,,]2 [AA,]B | [cA,,]A [AA,]G [AD,,]2 D,A | [BG,,]2 [dG,]B [GE,,]2 [gE,]2 | 
 [eC,,]e [gC,]e [cD,,]e [dD,]c | [BG,,]2 [dG,]B [GE,,]2 [AA,]B | [cD,,]A [DD,]A [GG,,]2 G,G :: 
 [cC,,]c [GC,]c [eC,,]2 [dC,]c | [BG,,]d [GG,]B [dE,,]2 [cE,]B | [AA,,]G [AA,]B [cD,,]2 [AD,]A | 
 [GG,,]A [BG,]c [dG,,]2 [GG,]2 | [cC,,]c [GC,]c [eC,,]2 [dC,]c | [BG,,]d [GG,]B [dE,,]2 [cE,]B | 
 [AA,,]G [AA,]B [cD,,]2 [AD,]A ||1 [GG,,]g [dG,]B [GG,,]2 G,G :|

